brandFactory_export/3.Masa/Portabilidad_3Masa (1).svg

<?xml version="1.0" encoding="UTF-8"?>
<svg width="24px" height="24px" viewBox="0 0 24 24" version="1.1" xmlns="http://www.w3.org/2000/svg" xmlns:xlink="http://www.w3.org/1999/xlink">
    <title>3.Masa/Portabilidad_3Masa (1)</title>
    <g id="Symbols" stroke="none" stroke-width="1" fill="none" fill-rule="evenodd">
        <g id="3.Masa/Portabilidad_3Masa-(1)" fill="#5CB615" fill-rule="nonzero">
            <path d="M10.5714286,1.02352941 C13.9327731,1.02352941 16.5478992,1.90420168 18.3394958,3.63865546 C20.1268261,5.36780866 21.0688479,7.92362389 21.1386671,11.2343838 L21.1428571,11.6319328 L21.1428571,11.6319328 C21.1428571,12.1127823 21.1249625,12.580032 21.0895036,13.0316999 C21.2232833,12.876096 21.3637447,12.7117146 21.502521,12.5495798 C21.8554622,12.1361345 22.2184874,11.7092437 22.5243697,11.4033613 C22.7865546,11.1411765 23.2134454,11.1411765 23.4756303,11.4033613 C23.7378151,11.6655462 23.7378151,12.092437 23.4756303,12.3546218 C23.2067227,12.6235294 22.8605042,13.0302521 22.5277311,13.4235294 C22.1714286,13.8403361 21.805042,14.2739496 21.4957983,14.5798319 C21.102521,14.9663866 20.6823529,15.1613445 20.2655462,15.1613445 C19.8521008,15.1613445 19.4420168,14.9697479 19.0621849,14.589916 C18.7932773,14.3210084 18.2991597,13.7462185 17.4789916,12.794958 L17.0655462,12.3142857 C16.8235294,12.0319328 16.8537815,11.6084034 17.1361345,11.3663866 C17.4184874,11.1243697 17.8420168,11.1546218 18.0840336,11.4369748 L18.497479,11.9176471 C19.0277237,12.5331921 19.4346357,13.0048488 19.7127924,13.3152656 C19.7694351,12.7804385 19.7983193,12.2174882 19.7983193,11.6319328 C19.7983193,8.50588235 18.9915966,6.14285714 17.405042,4.60336134 C15.8722689,3.1210084 13.5731092,2.36806723 10.5714286,2.36806723 C7.5697479,2.36806723 5.27058824,3.1210084 3.73781513,4.60336134 C2.1512605,6.1394958 1.34453782,8.50588235 1.34453782,11.6352941 C1.34453782,14.7647059 2.1512605,17.1277311 3.73781513,18.6672269 C5.27058824,20.1495798 7.5697479,20.902521 10.5714286,20.902521 C12.6386555,20.902521 14.3831933,20.5428571 15.7579832,19.8369748 C16.087395,19.6689076 16.4941176,19.7966387 16.6621849,20.1294118 C16.8302521,20.4588235 16.702521,20.8655462 16.3731092,21.0336134 C14.8033613,21.8369748 12.8537815,22.2436975 10.5714286,22.2436975 C7.21008403,22.2436975 4.59495798,21.3630252 2.80336134,19.6285714 C0.944537815,17.8302521 2.99365865e-10,15.1411765 2.99365865e-10,11.6352941 C2.99365865e-10,8.12941176 0.944537815,5.43697479 2.80336134,3.63865546 C4.59495798,1.90420168 7.21008403,1.02352941 10.5714286,1.02352941 Z M13.0151261,3.73277311 C13.9630252,3.73277311 14.5344538,4.13277311 14.8504202,4.46554622 C15.1428571,4.77815126 15.492437,5.33277311 15.4957983,6.21344538 L15.4957983,6.21344538 L15.4957983,16.4117647 C15.4957983,17.292437 15.1462185,17.8470588 14.8537815,18.1596639 C14.5378151,18.4957983 13.9630252,18.892437 13.0184874,18.892437 L13.0184874,18.892437 L7.38823529,18.892437 C6.44033613,18.892437 5.86890756,18.492437 5.55294118,18.1596639 C5.2605042,17.8470588 4.91092437,17.292437 4.91092437,16.4117647 L4.91092437,16.4117647 L4.91092437,7.72605042 C4.91092437,7.37310924 5.0487395,7.03361345 5.29747899,6.78151261 L5.29747899,6.78151261 L7.90588235,4.13277311 C8.15798319,3.87731092 8.50420168,3.73277311 8.86386555,3.73277311 L8.86386555,3.73277311 Z M8.96470588,14.2773109 L7.89243698,14.2773109 L7.89243698,15.5680672 L8.96470588,15.5680672 L8.96470588,14.2773109 Z M10.7092437,14.2773109 L9.63361345,14.2773109 L9.63361345,15.5680672 L10.7092437,15.5680672 L10.7092437,14.2773109 Z M12.4605042,14.2773109 L11.3815126,14.2773109 L11.3815126,15.5680672 L12.4605042,15.5680672 L12.4605042,14.2773109 Z M12.4638655,12.3042017 L7.89243698,12.3042017 L7.89243698,13.605042 L12.4638655,13.605042 L12.4638655,12.3042017 Z M12.4638655,10.307563 L11.3848739,10.307563 L11.3848739,11.6319328 L12.4638655,11.6319328 L12.4638655,10.307563 Z M10.7092437,10.307563 L9.63361345,10.307563 L9.63361345,11.6319328 L10.7092437,11.6319328 L10.7092437,10.307563 Z M8.96134454,10.307563 L7.88907563,10.307563 L7.88907563,11.6319328 L8.96134454,11.6319328 L8.96134454,10.307563 Z" id="Portabilidad_3Masa-(1)"></path>
        </g>
    </g>
</svg>

<svg width="24" height="24" viewBox="0 0 24 24" xmlns="http://www.w3.org/2000/svg"><path d="M10.571 1.024c3.362 0 5.977.88 7.768 2.615 1.788 1.729 2.73 4.285 2.8 7.595l.004.398c0 .48-.018.948-.053 1.4l.413-.482c.352-.414.715-.84 1.021-1.147a.674.674 0 01.952.952c-.27.269-.615.675-.948 1.069-.357.416-.723.85-1.032 1.156-.393.386-.814.581-1.23.581-.414 0-.824-.191-1.204-.571-.269-.269-.763-.844-1.583-1.795l-.413-.48a.671.671 0 111.018-.878l.413.48c.53.616.938 1.088 1.216 1.398.056-.535.085-1.098.085-1.683 0-3.126-.806-5.49-2.393-7.029-1.533-1.482-3.832-2.235-6.834-2.235-3.001 0-5.3.753-6.833 2.235C2.15 6.14 1.345 8.506 1.345 11.635c0 3.13.806 5.493 2.393 7.032 1.533 1.483 3.832 2.236 6.833 2.236 2.068 0 3.812-.36 5.187-1.066a.672.672 0 01.615 1.197c-1.57.803-3.52 1.21-5.802 1.21-3.36 0-5.976-.881-7.768-2.615C.945 17.83 0 15.14 0 11.635 0 8.13.945 5.437 2.803 3.64c1.792-1.735 4.407-2.615 7.768-2.615zm2.444 2.709c.948 0 1.52.4 1.835.733.293.312.642.867.646 1.747v10.199c0 .88-.35 1.435-.642 1.748-.316.336-.891.732-1.836.732h-5.63c-.948 0-1.52-.4-1.835-.732-.292-.313-.642-.868-.642-1.748V7.726c0-.353.138-.692.386-.944l2.609-2.65c.252-.255.598-.4.958-.4zm-4.05 10.544H7.892v1.291h1.073v-1.29zm1.744 0H9.634v1.291h1.075v-1.29zm1.752 0h-1.08v1.291h1.08v-1.29zm.003-1.973H7.892v1.301h4.572v-1.3zm0-1.996h-1.08v1.324h1.08v-1.324zm-1.755 0H9.634v1.324h1.075v-1.324zm-1.748 0H7.89v1.324h1.072v-1.324z" fill="#5CB615" fill-rule="nonzero"/></svg>
